src/assets/icons/icon-typescript.svg

<svg width="125" height="125" viewBox="0 0 125 125" fill="none" xmlns="http://www.w3.org/2000/svg">
<path d="M0 62.5V125H125V0H0V62.5ZM100.73 57.5C103.724 58.1948 106.445 59.7606 108.55 62C109.709 63.2064 110.716 64.5497 111.55 66C111.55 66.16 106.15 69.81 102.86 71.85C102.74 71.93 102.26 71.41 101.73 70.62C101.129 69.5837 100.276 68.7164 99.2496 68.0991C98.2231 67.4818 97.057 67.1346 95.86 67.09C92.07 66.83 89.63 68.82 89.65 72.09C89.6187 72.9041 89.8051 73.7119 90.19 74.43C91.02 76.16 92.57 77.19 97.43 79.29C106.38 83.14 110.21 85.68 112.59 89.29C115.25 93.29 115.84 99.75 114.04 104.53C112.04 109.73 107.14 113.26 100.21 114.43C97.0448 114.793 93.8468 114.759 90.69 114.33C85.8516 113.532 81.3948 111.209 77.97 107.7C76.82 106.43 74.58 103.12 74.72 102.88C75.0851 102.609 75.4694 102.365 75.87 102.15L80.5 99.59L84.09 97.51L84.84 98.62C86.1057 100.431 87.7166 101.973 89.58 103.16C93.58 105.26 99.04 104.97 101.74 102.54C102.647 101.65 103.212 100.469 103.338 99.2049C103.464 97.9405 103.143 96.6719 102.43 95.62C101.43 94.23 99.43 93.06 93.84 90.62C87.39 87.84 84.61 86.12 82.07 83.38C80.4843 81.5719 79.3136 79.4386 78.64 77.13C78.1375 74.4924 78.0633 71.7912 78.42 69.13C79.75 62.9 84.42 58.55 91.24 57.26C94.3984 56.8692 97.5977 56.9569 100.73 57.52V57.5ZM71.39 62.74V67.86H55.16V114.09H43.65V67.85H27.38V62.85C27.3293 61.1258 27.3694 59.4 27.5 57.68C27.58 57.59 37.5 57.59 49.5 57.59H71.33L71.39 62.74Z" fill="#007ACC"/>
</svg>

<svg width="125" height="125" fill="none" xmlns="http://www.w3.org/2000/svg"><path d="M0 62.5V125h125V0H0v62.5Zm100.73-5a15.56 15.56 0 0 1 7.82 4.5 20.584 20.584 0 0 1 3 4c0 .16-5.4 3.81-8.69 5.85-.12.08-.6-.44-1.13-1.23a7.094 7.094 0 0 0-5.87-3.53c-3.79-.26-6.23 1.73-6.21 5a4.58 4.58 0 0 0 .54 2.34c.83 1.73 2.38 2.76 7.24 4.86 8.95 3.85 12.78 6.39 15.16 10 2.66 4 3.25 10.46 1.45 15.24-2 5.2-6.9 8.73-13.83 9.9a38.295 38.295 0 0 1-9.52-.1 23.006 23.006 0 0 1-12.72-6.63c-1.15-1.27-3.39-4.58-3.25-4.82a9.34 9.34 0 0 1 1.15-.73l4.63-2.56 3.59-2.08.75 1.11a16.78 16.78 0 0 0 4.74 4.54c4 2.1 9.46 1.81 12.16-.62a5.427 5.427 0 0 0 .69-6.92c-1-1.39-3-2.56-8.59-5-6.45-2.78-9.23-4.5-11.77-7.24a16.48 16.48 0 0 1-3.43-6.25 25 25 0 0 1-.22-8c1.33-6.23 6-10.58 12.82-11.87a31.662 31.662 0 0 1 9.49.26v-.02Zm-29.34 5.24v5.12H55.16v46.23H43.65V67.85H27.38v-5a49.19 49.19 0 0 1 .12-5.17c.08-.09 10-.09 22-.09h21.83l.06 5.15Z" fill="#007ACC"/></svg>
